static/cats/cat_ticket_2.svg

<svg width="116" height="98" viewBox="0 0 116 98" fill="none" xmlns="http://www.w3.org/2000/svg">
<path d="M6.09 69.8853C9.02 72.5953 12.22 75.0053 15.62 77.0853H99.77C103.17 75.0053 106.37 72.5953 109.3 69.8853C111.46 67.8853 113.5 65.7053 115.01 63.1753C115.19 62.8753 115.37 62.5453 115.37 62.1953C115.37 61.8753 115.22 61.5753 115.07 61.2853C112.37 56.0153 109.21 50.9753 105.65 46.2453C105.65 46.2453 106.98 28.1053 105.81 20.9253C104.64 13.7553 102.25 6.71532 98.24 0.655321C98.08 0.415321 97.9 0.155321 97.62 0.0553208C97.31 -0.0546792 96.96 0.055321 96.65 0.175321C87.26 3.78532 78.26 10.7553 72.26 18.8353C62.54 15.8953 52.83 15.8953 43.11 18.8353C37.11 10.7653 28.11 3.78532 18.72 0.175321C18.41 0.055321 18.07 -0.0646792 17.75 0.0553208C17.48 0.155321 17.29 0.415321 17.13 0.655321C13.11 6.71532 10.72 13.7553 9.56 20.9253C8.39 28.0953 9.72 46.2453 9.72 46.2453C6.16 50.9753 3 56.0153 0.3 61.2853C0.15 61.5753 0 61.8753 0 62.1953C0 62.5453 0.18 62.8753 0.36 63.1753C1.89 65.7053 3.93 67.8853 6.09 69.8853Z" fill="#DCDFE2"/>
<path d="M39.31 47.5653C41.74 45.7153 43.89 43.5253 45.73 41.1053C50.93 34.2553 53.6 25.5053 52.82 16.8953L52.81 16.8853C49.58 17.2153 46.36 17.8553 43.13 18.8353C37.13 10.7653 28.13 3.78532 18.74 0.175321C18.43 0.055321 18.09 -0.0646792 17.77 0.0553208C17.5 0.155321 17.31 0.415321 17.15 0.655321C13.13 6.71532 10.74 13.7553 9.58 20.9253C8.41 28.0953 9.74 46.2453 9.74 46.2453C8.27 48.1953 6.89 50.2153 5.56 52.2753C16.51 56.3553 30.02 54.6653 39.31 47.5653Z" fill="#A3ABB8"/>
<path d="M112.72 77.0953C111.28 72.5153 109.66 67.9553 106.94 64.0153C105.17 61.4553 102.82 59.1153 99.84 58.2653C98.94 58.0053 98 57.8953 97.06 57.9253C95.42 57.9753 93.73 58.5153 92.59 59.6953C90.86 61.4953 90.76 64.2553 90.77 66.7453C90.78 70.1953 90.78 73.6453 90.79 77.0853H112.72V77.0953Z" fill="#A3ABB8"/>
<path d="M111.33 55.4453L111.69 55.2453C109.83 52.1453 107.83 49.1253 105.65 46.2353C105.65 46.2353 106.98 28.0953 105.81 20.9153C104.64 13.7453 102.25 6.70532 98.24 0.645316C98.08 0.405316 97.9 0.145316 97.62 0.0453157C97.31 -0.0646843 96.96 0.0453156 96.65 0.165316C87.26 3.77532 78.26 10.7453 72.26 18.8253C69.11 17.8753 65.96 17.2353 62.8 16.8953L62.67 17.0453C62.23 20.8753 63.11 24.7453 64.48 28.3453C67.94 37.4753 74.63 45.3353 83.08 50.2253C91.53 55.1153 101.7 56.9953 111.33 55.4453Z" fill="#A3ABB8"/>
<path d="M101.83 68.9353C102.3 68.8053 102.58 68.3253 102.47 67.8453C102.44 67.7053 102.4 67.5653 102.38 67.4553C102.31 67.1053 102.22 66.7353 101.97 66.4853C101.76 66.2753 101.46 66.1853 101.16 66.1653C100.86 66.1453 100.57 66.2053 100.28 66.2653C98.89 65.4053 97.29 65.7153 96.74 67.2953C96.34 67.2353 95.95 67.5153 95.78 67.8853C95.61 68.2453 95.62 68.6753 95.68 69.0653C95.71 69.2753 95.76 69.4953 95.83 69.6953C95.97 70.1553 96.46 70.4053 96.92 70.2753L101.83 68.9353Z" fill="#E44D39"/>
<path d="M97.13 64.1153C97.36 64.2153 97.64 64.2253 97.86 64.0953C98.03 63.9853 98.14 63.8053 98.21 63.6153C98.37 63.1253 98.26 62.5753 98.12 62.0753C97.99 61.6053 97.81 61.1353 97.47 60.7953C97.12 60.4553 96.56 60.2953 96.14 60.5453C95.82 60.7353 95.66 61.1253 95.65 61.5053C95.64 61.8753 95.76 62.2453 95.89 62.5953C95.88 62.5953 96.46 63.8553 97.13 64.1153Z" fill="#E44D39"/>
<path d="M99.95 64.2153C100.08 64.4353 100.29 64.6153 100.54 64.6353C100.74 64.6553 100.94 64.5753 101.11 64.4653C101.54 64.1653 101.78 63.6753 101.97 63.1853C102.14 62.7353 102.29 62.2553 102.22 61.7753C102.15 61.2953 101.79 60.8253 101.31 60.7753C100.94 60.7353 100.58 60.9553 100.34 61.2453C100.1 61.5353 99.98 61.9053 99.87 62.2553C99.87 62.2553 99.57 63.6153 99.95 64.2153Z" fill="#E44D39"/>
<path d="M95.06 66.4253C95.31 66.3953 95.56 66.2653 95.68 66.0453C95.78 65.8653 95.78 65.6554 95.74 65.4554C95.63 64.9454 95.27 64.5353 94.89 64.1753C94.54 63.8453 94.15 63.5153 93.68 63.3953C93.21 63.2753 92.64 63.4254 92.41 63.8454C92.23 64.1754 92.29 64.5954 92.47 64.9154C92.65 65.2454 92.94 65.4954 93.22 65.7354C93.22 65.7454 94.35 66.5453 95.06 66.4253Z" fill="#E44D39"/>
<path d="M70.23 67.6953C68.34 68.9153 65.76 69.1853 63.56 68.8653C61.48 68.5653 59.53 67.3653 58.29 65.6653C58.28 65.6453 58.25 65.6353 58.24 65.6153C58.16 65.4953 58.06 65.3853 57.93 65.3053C57.86 65.2653 57.78 65.2553 57.71 65.2253C57.69 65.2153 57.67 65.2053 57.65 65.2053C57.57 65.1853 57.49 65.1853 57.41 65.1853C57.34 65.1853 57.28 65.1853 57.21 65.2053C57.18 65.2153 57.15 65.2253 57.12 65.2353C57.05 65.2553 56.99 65.2653 56.92 65.3053C56.8 65.3753 56.7 65.4853 56.61 65.6053C56.59 65.6253 56.57 65.6353 56.56 65.6553C55.33 67.3553 53.37 68.5153 51.29 68.8153C49.09 69.1353 46.52 68.8653 44.62 67.6453C43.54 66.9453 42.53 68.6753 43.61 69.3753C45.96 70.8853 49.11 71.1753 51.82 70.7453C53.99 70.4053 55.93 69.2753 57.42 67.6953C58.9 69.2853 60.85 70.4353 63.02 70.7853C65.73 71.2153 68.89 70.9253 71.23 69.4153C72.31 68.7253 71.31 66.9953 70.23 67.6953Z" fill="#515A69"/>
<path d="M60.97 59.8553C59.85 59.1653 54.97 59.1753 53.93 59.8553C53.62 60.0553 53.25 60.2853 53.28 60.6553C53.3 60.8653 53.44 61.0353 53.57 61.1853C54.56 62.2953 55.76 63.2253 57.09 63.8953C57.2 63.9553 57.33 63.9953 57.45 64.0253C57.58 64.0053 57.7 63.9553 57.81 63.8953C59.14 63.2253 60.34 62.2953 61.33 61.1853C61.47 61.0353 61.61 60.8553 61.62 60.6553C61.66 60.2853 61.28 60.0453 60.97 59.8553Z" fill="#E44D39"/>
<path d="M38.41 61.2753C44.4189 61.2753 49.29 56.4041 49.29 50.3953C49.29 44.3864 44.4189 39.5153 38.41 39.5153C32.4012 39.5153 27.53 44.3864 27.53 50.3953C27.53 56.4041 32.4012 61.2753 38.41 61.2753Z" fill="white"/>
<path d="M41.79 52.1452C40.4 51.8052 39.26 50.7252 38.86 49.3552C38.47 48.0352 38.74 46.7952 39.4 45.8352C39.52 45.6652 39.4 45.4152 39.19 45.3852C37.89 45.2052 36.5 45.3252 35.07 45.8952C32.34 46.9852 30.32 49.4752 29.92 52.3852C29.55 55.0752 30.48 57.5552 32.17 59.2952C33.52 60.2452 35.11 60.9052 36.85 61.1652C38.92 61.4652 40.94 61.1452 42.73 60.3652C44.9 58.8752 46.33 56.3852 46.33 53.5552C46.33 52.7952 46.22 52.0652 46.03 51.3652C45.97 51.1452 45.7 51.0952 45.53 51.2452C44.57 52.0852 43.23 52.4952 41.79 52.1452Z" fill="#73C04D"/>
<path d="M38.06 60.0852C36.91 60.0852 35.76 59.8252 34.73 59.3152C33.99 58.9452 33.68 58.0452 34.05 57.3052C34.42 56.5652 35.32 56.2552 36.06 56.6252C37.2 57.1852 38.59 57.2352 39.77 56.7552C40.54 56.4452 41.41 56.8052 41.73 57.5752C42.04 58.3452 41.68 59.2152 40.91 59.5352C40 59.8952 39.03 60.0852 38.06 60.0852Z" fill="#A1EC7C"/>
<path d="M76.99 61.2753C82.9989 61.2753 87.87 56.4041 87.87 50.3953C87.87 44.3864 82.9989 39.5153 76.99 39.5153C70.9812 39.5153 66.11 44.3864 66.11 50.3953C66.11 56.4041 70.9812 61.2753 76.99 61.2753Z" fill="white"/>
<path d="M80.37 52.1452C78.98 51.8052 77.84 50.7252 77.44 49.3552C77.05 48.0352 77.32 46.7952 77.97 45.8452C78.09 45.6652 77.97 45.4152 77.76 45.3852C76.47 45.2052 75.08 45.3252 73.64 45.8952C70.91 46.9852 68.89 49.4752 68.49 52.3852C68.12 55.0752 69.05 57.5552 70.74 59.2952C72.09 60.2452 73.68 60.9052 75.42 61.1652C77.49 61.4652 79.51 61.1452 81.3 60.3652C83.47 58.8752 84.9 56.3852 84.9 53.5552C84.9 52.7952 84.79 52.0652 84.6 51.3752C84.54 51.1552 84.27 51.0952 84.1 51.2452C83.15 52.0852 81.82 52.4952 80.37 52.1452Z" fill="#73C04D"/>
<path d="M76.64 60.0852C75.49 60.0852 74.34 59.8252 73.31 59.3152C72.57 58.9452 72.26 58.0452 72.63 57.3052C73 56.5652 73.9 56.2552 74.64 56.6252C75.78 57.1852 77.17 57.2352 78.35 56.7552C79.12 56.4452 79.99 56.8052 80.31 57.5752C80.62 58.3452 80.26 59.2152 79.49 59.5352C78.59 59.8952 77.61 60.0852 76.64 60.0852Z" fill="#A1EC7C"/>
<path d="M55.58 56.3253C55.75 56.2853 55.92 56.2453 56.09 56.2153C56.16 56.2053 56.24 56.1953 56.31 56.1753C56.56 56.1353 56.08 56.1953 56.34 56.1753C56.66 56.1353 56.98 56.1153 57.31 56.1153C57.63 56.1153 57.96 56.1253 58.28 56.1653C58.35 56.1753 58.56 56.2353 58.31 56.1653C58.38 56.1853 58.46 56.1853 58.53 56.1953C58.7 56.2253 58.87 56.2553 59.04 56.2953C59.55 56.4053 60.15 56.1453 60.27 55.5953C60.39 55.0853 60.12 54.4853 59.57 54.3653C58.08 54.0253 56.54 54.0353 55.05 54.3953C54.54 54.5153 54.19 55.1253 54.35 55.6253C54.52 56.1653 55.03 56.4653 55.58 56.3253Z" fill="#A3ABB8"/>
<path d="M30.5 22.6153C27.98 19.2153 24.8 16.6953 20.92 15.1053C20.57 14.9653 20.17 15.1053 19.98 15.4353C17.75 19.2353 16.54 28.1953 17.43 31.9753C17.6 32.5153 18.27 32.6953 18.69 32.3053C19.56 31.4953 21 30.1853 22.67 28.8053C22.94 28.5853 23.1 28.2553 23.1 27.9153L23.11 25.7953C23.11 25.4053 23.58 25.2053 23.87 25.4753L24.55 26.1153C24.95 26.4953 25.57 26.5453 26.02 26.2253C27.46 25.2053 28.9 24.3153 30.18 23.7753C30.63 23.5853 30.79 23.0153 30.5 22.6153Z" fill="#515A69"/>
<path d="M84.9 22.6153C87.42 19.2153 90.6 16.6953 94.48 15.1053C94.83 14.9653 95.23 15.1053 95.42 15.4353C97.65 19.2353 98.86 28.1953 97.97 31.9753C97.8 32.5153 97.13 32.6953 96.71 32.3053C95.84 31.4953 94.4 30.1853 92.73 28.8053C92.46 28.5853 92.3 28.2553 92.3 27.9153L92.29 25.7953C92.29 25.4053 91.82 25.2053 91.53 25.4753L90.85 26.1153C90.45 26.4953 89.83 26.5453 89.38 26.2253C87.94 25.2053 86.5 24.3153 85.22 23.7753C84.77 23.5853 84.61 23.0153 84.9 22.6153Z" fill="#515A69"/>
<path d="M14.66 77.0953C15.55 81.2553 17.68 90.5853 20.5 93.7653C23.51 97.1453 28.52 98.6453 32.84 97.3153C33.88 96.9953 34.91 96.5053 35.64 95.6953C36.93 94.2753 37.08 92.1653 37.03 90.2453C36.9 85.9553 36.07 81.6953 34.57 77.6753C31.84 71.5353 24.02 68.6653 18.09 69.9653C14.45 70.9453 11.59 73.7853 9.75 77.0953H14.66Z" fill="#A3ABB8"/>
<path d="M25.92 97.2153L26.86 94.4853C26.99 94.0953 27.55 94.1053 27.67 94.5053L28.65 97.7553C27.73 97.6853 26.81 97.4953 25.92 97.2153Z" fill="#515A69"/>
<path d="M32.85 97.3153C32.71 97.3553 32.57 97.3953 32.42 97.4253L31.98 94.5653C31.92 94.1553 32.41 93.9053 32.7 94.2053L34.85 96.3753C34.24 96.7953 33.55 97.1053 32.85 97.3153Z" fill="#515A69"/>
</svg>

<svg width="116" height="98" fill="none" xmlns="http://www.w3.org/2000/svg"><path d="M6.09 69.885a60.65 60.65 0 009.53 7.2h84.15c3.4-2.08 6.6-4.49 9.53-7.2 2.16-2 4.2-4.18 5.71-6.71.18-.3.36-.63.36-.98 0-.32-.15-.62-.3-.91a103.57 103.57 0 00-9.42-15.04s1.33-18.14.16-25.32c-1.17-7.17-3.56-14.21-7.57-20.27-.16-.24-.34-.5-.62-.6-.31-.11-.66 0-.97.12-9.39 3.61-18.39 10.58-24.39 18.66-9.72-2.94-19.43-2.94-29.15 0-6-8.07-15-15.05-24.39-18.66-.31-.12-.65-.24-.97-.12-.27.1-.46.36-.62.6-4.02 6.06-6.41 13.1-7.57 20.27-1.17 7.17.16 25.32.16 25.32A103.57 103.57 0 00.3 61.285c-.15.29-.3.59-.3.91 0 .35.18.68.36.98 1.53 2.53 3.57 4.71 5.73 6.71z" fill="#DCDFE2"/><path d="M39.31 47.565a33.86 33.86 0 006.42-6.46c5.2-6.85 7.87-15.6 7.09-24.21l-.01-.01c-3.23.33-6.45.97-9.68 1.95-6-8.07-15-15.05-24.39-18.66-.31-.12-.65-.24-.97-.12-.27.1-.46.36-.62.6-4.02 6.06-6.41 13.1-7.57 20.27-1.17 7.17.16 25.32.16 25.32a101 101 0 00-4.18 6.03c10.95 4.08 24.46 2.39 33.75-4.71zM112.72 77.095c-1.44-4.58-3.06-9.14-5.78-13.08-1.77-2.56-4.12-4.9-7.1-5.75-.9-.26-1.84-.37-2.78-.34-1.64.05-3.33.59-4.47 1.77-1.73 1.8-1.83 4.56-1.82 7.05.01 3.45.01 6.9.02 10.34h21.93v.01zM111.33 55.445l.36-.2c-1.86-3.1-3.86-6.12-6.04-9.01 0 0 1.33-18.14.16-25.32-1.17-7.17-3.56-14.21-7.57-20.27-.16-.24-.34-.5-.62-.6-.31-.11-.66 0-.97.12-9.39 3.61-18.39 10.58-24.39 18.66-3.15-.95-6.3-1.59-9.46-1.93l-.13.15c-.44 3.83.44 7.7 1.81 11.3 3.46 9.13 10.15 16.99 18.6 21.88 8.45 4.89 18.62 6.77 28.25 5.22z" fill="#A3ABB8"/><path d="M101.83 68.935c.47-.13.75-.61.64-1.09-.03-.14-.07-.28-.09-.39-.07-.35-.16-.72-.41-.97-.21-.21-.51-.3-.81-.32-.3-.02-.59.04-.88.1-1.39-.86-2.99-.55-3.54 1.03-.4-.06-.79.22-.96.59-.17.36-.16.79-.1 1.18.03.21.08.43.15.63.14.46.63.71 1.09.58l4.91-1.34zM97.13 64.115c.23.1.51.11.73-.02.17-.11.28-.29.35-.48.16-.49.05-1.04-.09-1.54-.13-.47-.31-.94-.65-1.28-.35-.34-.91-.5-1.33-.25-.32.19-.48.58-.49.96-.01.37.11.74.24 1.09-.01 0 .57 1.26 1.24 1.52zM99.95 64.215c.13.22.34.4.59.42.2.02.4-.06.57-.17.43-.3.67-.79.86-1.28.17-.45.32-.93.25-1.41-.07-.48-.43-.95-.91-1-.37-.04-.73.18-.97.47s-.36.66-.47 1.01c0 0-.3 1.36.08 1.96zM95.06 66.425c.25-.03.5-.16.62-.38.1-.18.1-.39.06-.59-.11-.51-.47-.92-.85-1.28-.35-.33-.74-.66-1.21-.78s-1.04.03-1.27.45c-.18.33-.12.75.06 1.07.18.33.47.58.75.82 0 .01 1.13.81 1.84.69z" fill="#E44D39"/><path d="M70.23 67.695c-1.89 1.22-4.47 1.49-6.67 1.17-2.08-.3-4.03-1.5-5.27-3.2-.01-.02-.04-.03-.05-.05-.08-.12-.18-.23-.31-.31-.07-.04-.15-.05-.22-.08-.02-.01-.04-.02-.06-.02-.08-.02-.16-.02-.24-.02-.07 0-.13 0-.2.02l-.09.03c-.07.02-.13.03-.2.07-.12.07-.22.18-.31.3-.02.02-.04.03-.05.05-1.23 1.7-3.19 2.86-5.27 3.16-2.2.32-4.77.05-6.67-1.17-1.08-.7-2.09 1.03-1.01 1.73 2.35 1.51 5.5 1.8 8.21 1.37 2.17-.34 4.11-1.47 5.6-3.05 1.48 1.59 3.43 2.74 5.6 3.09 2.71.43 5.87.14 8.21-1.37 1.08-.69.08-2.42-1-1.72z" fill="#515A69"/><path d="M60.97 59.855c-1.12-.69-6-.68-7.04 0-.31.2-.68.43-.65.8.02.21.16.38.29.53.99 1.11 2.19 2.04 3.52 2.71.11.06.24.1.36.13.13-.02.25-.07.36-.13 1.33-.67 2.53-1.6 3.52-2.71.14-.15.28-.33.29-.53.04-.37-.34-.61-.65-.8z" fill="#E44D39"/><path d="M38.41 61.275c6.009 0 10.88-4.87 10.88-10.88 0-6.009-4.871-10.88-10.88-10.88s-10.88 4.871-10.88 10.88c0 6.01 4.871 10.88 10.88 10.88z" fill="#fff"/><path d="M41.79 52.145a4.087 4.087 0 01-2.93-2.79c-.39-1.32-.12-2.56.54-3.52.12-.17 0-.42-.21-.45-1.3-.18-2.69-.06-4.12.51-2.73 1.09-4.75 3.58-5.15 6.49a8.23 8.23 0 002.25 6.91c1.35.95 2.94 1.61 4.68 1.87 2.07.3 4.09-.02 5.88-.8 2.17-1.49 3.6-3.98 3.6-6.81 0-.76-.11-1.49-.3-2.19-.06-.22-.33-.27-.5-.12a4.12 4.12 0 01-3.74.9z" fill="#73C04D"/><path d="M38.06 60.085c-1.15 0-2.3-.26-3.33-.77a1.502 1.502 0 01-.68-2.01c.37-.74 1.27-1.05 2.01-.68 1.14.56 2.53.61 3.71.13.77-.31 1.64.05 1.96.82.31.77-.05 1.64-.82 1.96-.91.36-1.88.55-2.85.55z" fill="#A1EC7C"/><path d="M76.99 61.275c6.009 0 10.88-4.87 10.88-10.88 0-6.009-4.871-10.88-10.88-10.88s-10.88 4.871-10.88 10.88c0 6.01 4.871 10.88 10.88 10.88z" fill="#fff"/><path d="M80.37 52.145a4.087 4.087 0 01-2.93-2.79c-.39-1.32-.12-2.56.53-3.51.12-.18 0-.43-.21-.46a8.036 8.036 0 00-4.12.51c-2.73 1.09-4.75 3.58-5.15 6.49a8.23 8.23 0 002.25 6.91c1.35.95 2.94 1.61 4.68 1.87 2.07.3 4.09-.02 5.88-.8 2.17-1.49 3.6-3.98 3.6-6.81 0-.76-.11-1.49-.3-2.18-.06-.22-.33-.28-.5-.13-.95.84-2.28 1.25-3.73.9z" fill="#73C04D"/><path d="M76.64 60.085c-1.15 0-2.3-.26-3.33-.77a1.502 1.502 0 01-.68-2.01c.37-.74 1.27-1.05 2.01-.68 1.14.56 2.53.61 3.71.13.77-.31 1.64.05 1.96.82.31.77-.05 1.64-.82 1.96-.9.36-1.88.55-2.85.55z" fill="#A1EC7C"/><path d="M55.58 56.325c.17-.04.34-.08.51-.11.07-.01.15-.02.22-.04.25-.04-.23.02.03 0 .32-.04.64-.06.97-.06.32 0 .65.01.97.05.07.01.28.07.03 0 .07.02.15.02.22.03.17.03.34.06.51.1.51.11 1.11-.15 1.23-.7.12-.51-.15-1.11-.7-1.23a9.86 9.86 0 00-4.52.03c-.51.12-.86.73-.7 1.23.17.54.68.84 1.23.7z" fill="#A3ABB8"/><path d="M30.5 22.615c-2.52-3.4-5.7-5.92-9.58-7.51a.76.76 0 00-.94.33c-2.23 3.8-3.44 12.76-2.55 16.54.17.54.84.72 1.26.33.87-.81 2.31-2.12 3.98-3.5.27-.22.43-.55.43-.89l.01-2.12c0-.39.47-.59.76-.32l.68.64c.4.38 1.02.43 1.47.11 1.44-1.02 2.88-1.91 4.16-2.45.45-.19.61-.76.32-1.16zM84.9 22.615c2.52-3.4 5.7-5.92 9.58-7.51.35-.14.75 0 .94.33 2.23 3.8 3.44 12.76 2.55 16.54-.17.54-.84.72-1.26.33-.87-.81-2.31-2.12-3.98-3.5-.27-.22-.43-.55-.43-.89l-.01-2.12c0-.39-.47-.59-.76-.32l-.68.64c-.4.38-1.02.43-1.47.11-1.44-1.02-2.88-1.91-4.16-2.45a.772.772 0 01-.32-1.16z" fill="#515A69"/><path d="M14.66 77.095c.89 4.16 3.02 13.49 5.84 16.67 3.01 3.38 8.02 4.88 12.34 3.55 1.04-.32 2.07-.81 2.8-1.62 1.29-1.42 1.44-3.53 1.39-5.45-.13-4.29-.96-8.55-2.46-12.57-2.73-6.14-10.55-9.01-16.48-7.71-3.64.98-6.5 3.82-8.34 7.13h4.91z" fill="#A3ABB8"/><path d="M25.92 97.215l.94-2.73c.13-.39.69-.38.81.02l.98 3.25c-.92-.07-1.84-.26-2.73-.54zM32.85 97.315c-.14.04-.28.08-.43.11l-.44-2.86c-.06-.41.43-.66.72-.36l2.15 2.17c-.61.42-1.3.73-2 .94z" fill="#515A69"/></svg>
